img/telegram-icon.svg

<svg width="21" height="18" viewBox="0 0 21 18" fill="none" xmlns="http://www.w3.org/2000/svg">
<path d="M20.939 1.62187L17.7703 16.5656C17.5312 17.6203 16.9078 17.8828 16.0218 17.3859L11.1937 13.8281L8.86403 16.0687C8.60622 16.3266 8.39059 16.5422 7.89372 16.5422L8.24059 11.625L17.189 3.53906C17.5781 3.19218 17.1047 2.99999 16.5843 3.34687L5.52184 10.3125L0.759342 8.82187C-0.276596 8.49843 -0.295346 7.78593 0.974967 7.28906L19.6031 0.112493C20.4656 -0.210945 21.2203 0.30468 20.939 1.62187Z" fill="#40B0EF"/>
</svg>

<svg width="21" height="18" fill="none" xmlns="http://www.w3.org/2000/svg"><path d="M20.939 1.622L17.77 16.566c-.239 1.054-.862 1.317-1.748.82l-4.828-3.558-2.33 2.24c-.258.259-.473.474-.97.474l.347-4.917 8.948-8.086c.39-.347-.084-.539-.605-.192L5.522 10.313.759 8.822C-.277 8.498-.295 7.786.975 7.289L19.603.112c.863-.323 1.617.193 1.336 1.51z" fill="#40B0EF"/></svg>
